build/img/svg/level-sound.svg

<svg width="166" height="87" viewBox="0 0 166 87" fill="none" xmlns="http://www.w3.org/2000/svg">
<path d="M44.5146 43.0889L45.418 34.2266H54.5244V36.314H47.3345L46.7974 41.1602C47.6681 40.6475 48.6569 40.3911 49.7637 40.3911C51.3831 40.3911 52.6689 40.9282 53.6211 42.0024C54.5732 43.0685 55.0493 44.513 55.0493 46.3359C55.0493 48.167 54.5529 49.6115 53.5601 50.6694C52.5754 51.7192 51.196 52.2441 49.4219 52.2441C47.8512 52.2441 46.5695 51.8088 45.5767 50.938C44.5838 50.0672 44.0182 48.8628 43.8799 47.3247H46.0161C46.1545 48.342 46.5166 49.111 47.1025 49.6318C47.6885 50.1445 48.4616 50.4009 49.4219 50.4009C50.4717 50.4009 51.2936 50.0428 51.8877 49.3267C52.4899 48.6105 52.791 47.6217 52.791 46.3604C52.791 45.1722 52.4655 44.2201 51.8145 43.5039C51.1715 42.7796 50.313 42.4175 49.2388 42.4175C48.2541 42.4175 47.481 42.6331 46.9194 43.0645L46.3213 43.5527L44.5146 43.0889ZM58.5527 43.0889L59.4561 34.2266H68.5625V36.314H61.3726L60.8354 41.1602C61.7062 40.6475 62.695 40.3911 63.8018 40.3911C65.4212 40.3911 66.707 40.9282 67.6592 42.0024C68.6113 43.0685 69.0874 44.513 69.0874 46.3359C69.0874 48.167 68.591 49.6115 67.5981 50.6694C66.6134 51.7192 65.234 52.2441 63.46 52.2441C61.8893 52.2441 60.6076 51.8088 59.6147 50.938C58.6219 50.0672 58.0563 48.8628 57.918 47.3247H60.0542C60.1925 48.342 60.5547 49.111 61.1406 49.6318C61.7266 50.1445 62.4997 50.4009 63.46 50.4009C64.5098 50.4009 65.3317 50.0428 65.9258 49.3267C66.528 48.6105 66.8291 47.6217 66.8291 46.3604C66.8291 45.1722 66.5036 44.2201 65.8525 43.5039C65.2096 42.7796 64.3511 42.4175 63.2769 42.4175C62.2922 42.4175 61.519 42.6331 60.9575 43.0645L60.3594 43.5527L58.5527 43.0889ZM77.8765 50.1567L78.6577 49.1924C79.5366 48.0531 80.0371 46.3441 80.1592 44.0654L80.3667 38.792H88.875V50.1567H90.5718V55.8818H88.3135V52H79.0972V55.8818H76.8389L76.8511 50.1567H77.8765ZM80.5498 50.1567H86.6167V40.8794H82.5518L82.4175 44.0288C82.2791 46.6574 81.6566 48.7 80.5498 50.1567ZM104.268 36.1553H95.6987V41.4775H100.118C101.973 41.502 103.422 41.978 104.463 42.9058C105.505 43.8335 106.026 45.0949 106.026 46.6899C106.026 48.2931 105.501 49.5708 104.451 50.5229C103.401 51.4751 101.969 51.9674 100.154 52H93.3428V34.2266H104.268V36.1553ZM95.6987 43.4062V50.0835H99.9834C101.147 50.0835 102.05 49.7743 102.693 49.1558C103.344 48.5373 103.67 47.7072 103.67 46.6655C103.67 45.6646 103.357 44.8752 102.73 44.2974C102.111 43.7196 101.229 43.4225 100.081 43.4062H95.6987ZM119.014 47.3613H111.568L109.896 52H107.479L114.266 34.2266H116.316L123.116 52H120.711L119.014 47.3613ZM112.276 45.4326H118.318L115.291 37.1196L112.276 45.4326Z" fill="white"/>
<g opacity="0.8" clip-path="url(#clip0_301_4)">
<path d="M143.572 26.1188C121.528 4.52563 106.166 0 83 0C59.8344 0 36.9847 9.06347 21.4291 26.1652C6.18942 42.9105 2.13825 59.3678 0 81.2856V86.9976L62.1563 86.5313L62.5654 86.8023C63.014 81.7744 65.3353 77.0962 69.072 73.6888C72.8088 70.2814 77.6902 68.3919 82.7551 68.3922C83.8279 68.3922 86.9361 69.188 87.9819 69.3539L77.756 80.0089L77.8638 86.5484H85.971L85.8877 82.5818L95.4401 72.8421C95.7977 73.1253 96.1455 73.4182 96.4835 73.7282C100.211 77.1457 102.477 81.4784 102.918 86.4874L103.359 86.5338L166.005 87V81.2856C163.627 58.9406 158.816 46.1839 143.577 26.1188H143.572ZM159.318 81.2856H108.59C106.18 76.074 107.03 77.2042 103.606 72.2539C103.104 71.5216 100.094 68.4605 99.4202 67.9382L105.938 60.7494L100.723 56.2189L92.7752 64.8259C89.7111 63.8129 86.0543 62.8438 82.7551 62.8438C75.0936 62.8438 67.2974 65.214 62.1441 70.8576C58.279 75.0928 57.8872 75.4272 55.8444 81.2856H6.18942V80.8194C6.192 65.7289 10.6842 50.9781 19.0979 38.4318C27.5117 25.8855 39.4693 16.1072 53.4588 10.3331C67.4484 4.55908 82.8417 3.0486 97.6925 5.99265C112.543 8.93669 126.185 16.2031 136.892 26.8731C144.023 33.9411 149.677 42.3483 153.526 51.608C157.375 60.8678 159.344 70.7964 159.318 80.8194V81.2856Z" fill="white"/>
</g>
<defs>
<clipPath id="clip0_301_4">
<rect width="166" height="87" fill="white"/>
</clipPath>
</defs>
</svg>

<svg width="166" height="87" fill="none" xmlns="http://www.w3.org/2000/svg">
    <path d="M44.515 43.089l.903-8.862h9.106v2.087h-7.19l-.537 4.846c.871-.512 1.86-.769 2.967-.769 1.62 0 2.905.537 3.857 1.611.952 1.066 1.428 2.511 1.428 4.334 0 1.831-.496 3.276-1.489 4.333-.985 1.05-2.364 1.575-4.138 1.575-1.57 0-2.852-.435-3.845-1.306-.993-.87-1.559-2.075-1.697-3.613h2.136c.139 1.017.5 1.786 1.087 2.307.585.513 1.359.769 2.319.769 1.05 0 1.872-.358 2.466-1.074.602-.716.903-1.705.903-2.967 0-1.188-.325-2.14-.976-2.856-.643-.724-1.502-1.087-2.576-1.087-.985 0-1.758.216-2.32.648l-.598.488-1.806-.464zm14.038 0l.903-8.862h9.106v2.087h-7.19l-.537 4.846c.871-.512 1.86-.769 2.967-.769 1.62 0 2.905.537 3.857 1.611.952 1.066 1.428 2.511 1.428 4.334 0 1.831-.496 3.276-1.489 4.333-.985 1.05-2.364 1.575-4.138 1.575-1.57 0-2.852-.435-3.845-1.306-.993-.87-1.559-2.075-1.697-3.613h2.136c.139 1.017.5 1.786 1.087 2.307.586.513 1.359.769 2.319.769 1.05 0 1.872-.358 2.466-1.074.602-.716.903-1.705.903-2.967 0-1.188-.325-2.14-.976-2.856-.643-.724-1.502-1.087-2.576-1.087-.985 0-1.758.216-2.32.648l-.598.488-1.806-.464zm19.323 7.068l.782-.965c.879-1.139 1.38-2.848 1.501-5.127l.208-5.273h8.508v11.365h1.697v5.725h-2.258V52h-9.217v3.882H76.84l.012-5.725h1.025zm2.674 0h6.067v-9.278h-4.065l-.135 3.15c-.138 2.628-.76 4.671-1.867 6.128zm23.718-14.002h-8.57v5.322h4.42c1.855.025 3.304.501 4.345 1.429 1.042.928 1.563 2.189 1.563 3.784 0 1.603-.525 2.88-1.575 3.833-1.05.952-2.482 1.444-4.297 1.477h-6.811V34.227h10.925v1.928zm-8.57 7.251v6.678h4.285c1.164 0 2.067-.31 2.71-.928.651-.619.977-1.449.977-2.49 0-1.001-.313-1.79-.94-2.369-.619-.577-1.501-.874-2.649-.89h-4.382zm23.316 3.955h-7.446L109.896 52h-2.417l6.787-17.773h2.05l6.8 17.773h-2.405l-1.697-4.639zm-6.738-1.928h6.042l-3.027-8.313-3.015 8.313z" fill="#fff"/>
    <g opacity=".8" clip-path="url(#clip0_301_4)">
        <path d="M143.572 26.119C121.528 4.526 106.166 0 83 0 59.834 0 36.985 9.063 21.43 26.165 6.19 42.91 2.137 59.368 0 81.285v5.713l62.156-.467.41.271a20.174 20.174 0 016.506-13.113 20.307 20.307 0 0113.683-5.297c1.073 0 4.181.796 5.227.962L77.756 80.009l.108 6.54h8.107l-.083-3.967 9.552-9.74c.358.283.706.576 1.044.886 3.727 3.418 5.993 7.75 6.434 12.76l.441.046 62.646.466v-5.714c-2.378-22.345-7.189-35.102-22.428-55.167h-.005zm15.746 55.167H108.59c-2.41-5.212-1.56-4.082-4.984-9.032-.502-.732-3.512-3.794-4.186-4.316l6.518-7.189-5.215-4.53-7.948 8.607c-3.064-1.013-6.72-1.982-10.02-1.982-7.661 0-15.458 2.37-20.61 8.014-3.866 4.235-4.258 4.57-6.3 10.428H6.188v-.467a76.123 76.123 0 0112.909-42.387 76.511 76.511 0 0134.36-28.099 76.808 76.808 0 0144.234-4.34 76.645 76.645 0 0139.2 20.88 75.786 75.786 0 0116.634 24.735 75.591 75.591 0 015.792 29.211v.467z" fill="#fff"/>
    </g>
    <defs>
        <clipPath id="clip0_301_4">
            <path fill="#fff" d="M0 0h166v87H0z"/>
        </clipPath>
    </defs>
</svg>
